X:1
T:Merry Makers Schottische
M:C
L:1/8
R:Schottische
B:Kerr - Merry Melodies, vol. 1, p. 46  (c. 1875)
Z:AK/Fiddler's Companion
K:G
D2|:G>AB>c d>B G2|e>f (3gec d>B G2|e>f (3gec d>BG>B|A>BA>G F>E D2|
G>AB>c d>B G2|e>f (3gec d>B G2|e>f (3gec d>BG>B|A>GA>B G2:|
|:d2|e2 e2 e>fg>e|d>^cd>e d>B G2|c2 c2 B>cd>B|A>BA>G F>E D2|
G>AB>c d>B G2|e>f (3gec d>B G2|e>f (3gec d>BG>B|A>GA>B G2:|
K:C
G2|e2f ^f2g2|a>ge>c G4|e2f2^f2g2|b>af>d A4|d2e2f2^f2|a>g^f>g b2a2|a2g2f2d2|
(^d4 e2)G2|e2f2^f2g2|a>ge>c G4|e2f2^f2g2|b>af>d A4|
b>db>d b>af>d|a>ca>c a>ge>c|(3ded A>d B>Ge>d|c>Ge>d c2||
"Trio"
G2|c2 c>d e2 e<g|d2 d>e c2 c>B|A2 A>G c2 A>G|(E4 G2)c2|
d>cd>e f2f2|e>dA>d c>BA>B|c>AG>E G2 c>e|(d4 c2):|]

